icons/fill-ele-building-s-home.svg

<svg xmlns="http://www.w3.org/2000/svg" width="32px" height="32px" viewBox="0 0 32 32" version="1.1">
    <title>fill-ele-building-s-home</title>
    <g id="fill-ele-building-s-home" stroke-width="1" fill-rule="evenodd">
        <path d="M3,28 L3,14.463799 C3,14.1696484 3.12950726,13.8904169 3.35405776,13.7004127 L15.3540578,3.54656651 C15.7269036,3.23108156 16.2730964,3.23108156 16.6459422,3.54656651 L28.6459422,13.7004127 C28.8704927,13.8904169 29,14.1696484 29,14.463799 L29,28 C29,28.5522847 28.5522847,29 28,29 L20,29 L20,21 C20,20.4477153 19.5522847,20 19,20 L13,20 C12.4477153,20 12,20.4477153 12,21 L12,29 L4,29 C3.44771525,29 3,28.5522847 3,28 Z" id="&#24418;&#29366;" />
    </g>
</svg>

<svg xmlns="http://www.w3.org/2000/svg" viewBox="0 0 32 32"><path fill="currentColor" d="M3 28V14.464a1 1 0 0 1 .354-.764l12-10.153a1 1 0 0 1 1.292 0l12 10.153a1 1 0 0 1 .354.764V28a1 1 0 0 1-1 1h-8v-8a1 1 0 0 0-1-1h-6a1 1 0 0 0-1 1v8H4a1 1 0 0 1-1-1"/></svg>
